file/riot-games.svg

<svg clip-rule="evenodd" fill-rule="evenodd" stroke-linejoin="round" stroke-miterlimit="1.41421" viewBox="0 0 560 400" xmlns="http://www.w3.org/2000/svg"><path d="m389.8 487.4-7.5-19.4 72.7 3.7-3.3 31zm17.4-150.2-101.8 48.1 15.7 72.4h20.8l-3.6-51.8 3.2-1 12.5 52.8h21.6l-.8-63.1 3.2-1 10.9 64.1h22.8l5.4-76.3 3.2-1 5.7 77.2h30.2l10.6-106zm314.3 157.7-.2-6 20.9-.2.2-6.6-21.3-.3-.2-6.1 28.1-.7.2-7.2h-37.9l-1.1 35.1h39.7l-.3-7.2zm-189.1-12.9-.4 6.6 10.5.4-.1 6.7-22.1-.6 1-19.2 30.3-.7-.4-7.2h-39.2l-3.5 35.1h44.7l-1.2-21.2zm276.7 2.7-29-4.9.1-3.8 27.7-1-.7-7.2h-35.6l-1.8 18.2 29.5 5.1.1 3.3-30.6 1.2-.8 7.2h42.9zm-118.2 18.1-3.5-35.1h-10.1l-14.5 16.7-14.5-16.7h-10.1l-3.5 35.1h11.9l1.1-22.8 15.1 15.5 15.1-15.5 1.1 22.8zm-49.8-163.5h-23.7l-2.2 108.5h28.7zm73.5 84.9-26.2.8-.9-63.8 27.4.8zm22.9-84.8h-74l-2.9 108.4h82.1zm88.5 23.7-2.6-23.7h-72.9l.6 21.1 23.3.8 2.4 86.5h28.7l-8.6-85.7zm-281.8-1.6 22.9-.8 2.6 21.6-26.4 12.5zm26.7 86.3h31.1l-20.3-48.7 16.2-8.8-11.1-50.9h-79.5l-2.6 23.5 17.8-.6-8.6 85.5h27.8l.8-27.3 20.1-11zm15.2 39.2 2.4-11.5 11.6-.5 2.4 11.5zm19.8 15.8h12l-9.5-35.1h-28.2l-9.5 35.1h12l1.9-8.8 19.5.3z" fill="#d22a36" fill-rule="nonzero" transform="matrix(.69151 0 0 .69151 -111.187 -90.5378)"/></svg>

<?xml version="1.0" encoding="UTF-8" standalone="no"?>
<!DOCTYPE svg PUBLIC "-//W3C//DTD SVG 1.1//EN" "http://www.w3.org/Graphics/SVG/1.1/DTD/svg11.dtd">
<svg width="100%" height="100%" viewBox="0 0 560 400" version="1.1" xmlns="http://www.w3.org/2000/svg" xmlns:xlink="http://www.w3.org/1999/xlink" xml:space="preserve" xmlns:serif="http://www.serif.com/" style="fill-rule:evenodd;clip-rule:evenodd;stroke-linejoin:round;stroke-miterlimit:1.41421;">
    <g id="logosvg.com_1_" transform="matrix(0.69151,0,0,0.69151,-111.187,-90.5378)">
        <path d="M389.8,487.4L382.3,468L455,471.7L451.7,502.7L389.8,487.4ZM407.2,337.2L305.4,385.3L321.1,457.7L341.9,457.7L338.3,405.9L341.5,404.9L354,457.7L375.6,457.7L374.8,394.6L378,393.6L388.9,457.7L411.7,457.7L417.1,381.4L420.3,380.4L426,457.6L456.2,457.6L466.8,351.6L407.2,337.2ZM721.5,494.9L721.3,488.9L742.2,488.7L742.4,482.1L721.1,481.8L720.9,475.7L749,475L749.2,467.8L711.3,467.8L710.2,502.9L749.9,502.9L749.6,495.7L721.5,494.9ZM532.4,482L532,488.6L542.5,489L542.4,495.7L520.3,495.1L521.3,475.9L551.6,475.2L551.2,468L512,468L508.5,503.1L553.2,503.1L552,481.9L532.4,482ZM809.1,484.7L780.1,479.8L780.2,476L807.9,475L807.2,467.8L771.6,467.8L769.8,486L799.3,491.1L799.4,494.4L768.8,495.6L768,502.8L810.9,502.8L809.1,484.7ZM690.9,502.8L687.4,467.7L677.3,467.7L662.8,484.4L648.3,467.7L638.2,467.7L634.7,502.8L646.6,502.8L647.7,480L662.8,495.5L677.9,480L679,502.8L690.9,502.8ZM641.1,339.3L617.4,339.3L615.2,447.8L643.9,447.8L641.1,339.3ZM714.6,424.2L688.4,425L687.5,361.2L714.9,362L714.6,424.2ZM737.5,339.4L663.5,339.4L660.6,447.8L742.7,447.8L737.5,339.4ZM826,363.1L823.4,339.4L750.5,339.4L751.1,360.5L774.4,361.3L776.8,447.8L805.5,447.8L796.9,362.1L826,363.1ZM544.2,361.5L567.1,360.7L569.7,382.3L543.3,394.8L544.2,361.5ZM570.9,447.8L602,447.8L581.7,399.1L597.9,390.3L586.8,339.4L507.3,339.4L504.7,362.9L522.5,362.3L513.9,447.8L541.7,447.8L542.5,420.5L562.6,409.5L570.9,447.8ZM586.1,487L588.5,475.5L600.1,475L602.5,486.5L586.1,487ZM605.9,502.8L617.9,502.8L608.4,467.7L580.2,467.7L570.7,502.8L582.7,502.8L584.6,494L604.1,494.3L605.9,502.8Z" style="fill:rgb(210,42,54);fill-rule:nonzero;"/>
    </g>
</svg>
